X:1
T:Almighty God, which hast me brought - Ford
T:#
%%score [ 1 2 3 4 ]
L:1/8
Q:1/4=72
M:4/4
K:Bb
V:1 treble nm="Soprano" snm="S"
V:2 treble nm="Alto" snm="A"
V:3 treble-8 nm="Tenor" snm="T"
V:4 bass nm="Bass" snm="B"
V:1
"^Almighty God, which hast me brought" z2 G2 | B3 G ^F2 G2 | c2 B2 A3 d | %3
w: Al-|migh- ty God which|hast me brought in|
w: Pros-|per me, Lord, in|all my works, help|
w: Al-|migh- ty Lord and|God of love, di-|
 c2 d2 B3"^Thomas Ford\n(c. 1580-1648)" A |[M:4/4] G4 ^F>G A2 | z2 =f2 f3 =e | d2 c2 e2 d2 | %7
w: safe- ty to this|* pre- sent day,|Keep me from|sin in heart and|
w: me with thy con-|* tin- ual grace,|Keep me from|Sa- tan vile that|
w: rect mine heart and|* guide my ways,|A- mend my|miss, my mind re-|
 c2 (dc) B2 (cB) | A2 B2 A2 A2 | G4 z2 f2 | f3 =e d2 c2 | e2 d2 c2 (dc) | B2 (cB) A2 B2 | %13
w: thought, and * teach me *|what to do and|say. Keep|me frorn sin in|heart and thought, and *|teach me * what to|
w: lurks to * trap my *|soul in ev- 'ry|place. Keep|me from Sa- tan|vile that lurks to *|trap my * soul in|
w: move from * all that *|from thy glo- ry|strays. A-|mend my miss, my|mind re- move from *|all that * from thy|
 A2 A2 !fermata!G4 |] %14
w: do and say.|
w: ev- 'ry place.|
w: glo- ry strays.|
V:2
 z2 D2 | D3 D D2 =EG- | G (^F G2) F3 B | A2 A2 G2 D2 |[M:4/4] G,3 G, A,2 D2 | D3 C B,2 F2 | %6
w: Al-|migh- ty God, which hast|* me * brought in|safe- ty to this|pre- sent day, Keep|me from sin in|
w: Pros-|per me, Lord, in all|* my * works, help|me with thy con-|tin- ual grace, Keep|me from Sa- tan|
w: Al-|migh- ty Lord and God|* of * love, di-|rect mine heart and|guide my ways, A-|mend my miss, my|
 F4 (G2 FG) | A2 F2 (GF) E2 | (FE) D2 E2 D2 | [=B,D]2 _B,2 D3 C | B,2 F2 F4 | (G2 FG) A2 F2 | %12
w: heart and * *|thought, and teach * me|what * to do and|say. Keep me from|sin in heart|and * * thought, and|
w: vile that * *|lurks to trap * my|soul * in ev- 'ry|place. Keep me from|Sa- tan vile|that * * lurks to|
w: mind re\- * *|move from all * that|from * thy glo- ry|strays. A- mend my|miss, my mind|re\- * * move from|
 (GF) E2 (FE) D2 | E2 D2 !fermata![=B,D]4 |] %14
w: teach * me what * to|do and say.|
w: trap * my soul * in|ev- 'ry place,|
w: all * that from * thy|glo- ry strays.|
V:3
 z2 B2 | B3 B A2 c2 | c2 d2 d3 =f | f3 f ed d2- |[M:4/4][K:treble-8] d2 c2 d2 =f2 | f3 =e d4- | %6
w: Al-|migh- ty God, which|hast me brought in|safe- ty to this pre\-|* sent day, Keep|me from sin|
w: Pros-|per me, Lord, in|all my works, help|me with thy con- tin-|* ual grace, Keep|me from Sa\-|
w: Al-|migh- ty Lord and|God of love, di-|rect mine heart and guide|* my ways, A-|mend my miss,|
 d2 f2 (Bc) d2 | A2 (BA) G2 (AG) | F2 G2 G2 ^F2 | G2 d2 f3 =e | d6 f2 | (Bc) d2 A2 (BA) | %12
w: * in heart * and|thought, and * teach me *|what to do and|say. Keep me, from|sin in|heart * and thought, and *|
w: * tan vile * that|lurks to * trap my *|soul in ev- 'ry|place, Keep me from|Sa- tan|vile * that lurks to *|
w: * my mind * re-|move from * all that *|from thy glo- ry|strays. A- mend my|miss, my|mind * re- move from *|
 G2 (AG) F2 G2 | G2 ^F2 !fermata!G4 |] %14
w: teach me * what to|do and say.|
w: trap my * soul in|ev- 'ry place.|
w: all that * from thy|glo- ry strays.|
V:4
 G,,4 | G,2 G,,2 D,2 (C,B,,) | A,,2 G,,2 D,3 B,, | F,2 D,2 G,3 F, |[M:4/4] E,2 E,2 D,4 | %5
w: Al-|migh- ty God, which *|hast me brought in|safe- ty to this|pre- sent day,|
w: Pros\-|per me, Lord, in *|all my works, help|with thy con- tin-|tin- ual grace,|
w: Al-|migh- ty Lord and *|God of love, di-|rect mine heart and|guide my ways,|
 B,,4 B,3 B, | B,2 A,2 G,2 B,2 | F,2 D,2 (E,D,) C,2 | (D,C,) B,,2 C,2 D,2 | G,,4 B,,4 | %10
w: Keep me from|sin in heart and|thought, and teach * me|what * to do and|say. Keep|
w: Keep me from|Sa- tan vile that|lurks to trap * my|soul * in ev- 'ry|place. Keep|
w: A- mend my|miss, my mind re-|move from all * that|from * thy glo- ry|strays. A-|
 B,3 B, B,2 A,2 | G,2 B,2 F,2 D,2 | (E,D,) C,2 (D,C,) B,,2 | C,2 D,2 !fermata!G,,4 |] %14
w: me from sin in|heart and thought, and|teach * me what * to|do and say.|
w: me from Sa- tan|vile that lurks to|trap * my soul * in|ev- 'ry place.|
w: mend my miss, my|mind re- move from|all * that from * thy|glo- ry strays.|

